resources/svg/regular/stopwatch.svg

<svg xmlns="http://www.w3.org/2000/svg" fill="currentColor" stroke="none" viewBox="0 0 24 24"><path d="M12 5c-4.411 0-8 3.589-8 8s3.589 8 8 8 8-3.589 8-8-3.589-8-8-8zm0 14c-3.309 0-6-2.691-6-6s2.691-6 6-6 6 2.691 6 6-2.691 6-6 6z"/><path d="M11 9h2v5h-2zM9 2h6v2H9zm10.293 5.707-2-2 1.414-1.414 2 2z"/></svg>

<svg xmlns="http://www.w3.org/2000/svg" fill="currentColor" stroke="none" viewBox="0 0 24 24"><path d="M12,5c-4.411,0-8,3.589-8,8s3.589,8,8,8s8-3.589,8-8S16.411,5,12,5z M12,19c-3.309,0-6-2.691-6-6s2.691-6,6-6s6,2.691,6,6 S15.309,19,12,19z"/><path d="M11 9H13V14H11zM9 2H15V4H9z"/><path transform="rotate(-134.999 19 6)" d="M17.586 5H20.413999999999998V7H17.586z"/></svg>
